X:22
T:Leo MacLean
R:reel
C:Theresa Morrison
D:Laments and Merry Melodies, Theresa Morrison
Z:Paul Stewart Cranford (P.S.C.), <http://www.cranfordpub.com>
Q:333
L:1/8
M:C|
K:A
A2 cB A2 E2|CEAc e4|A2 cB A2 E2|CEDC B,4|
{E}A2 cB A2 E2|CEAc e4|dfed cBAF|E2 A2 A4:|
|:(Ac)ec Acec|defa e4|(Ac)ec Acec|dcBA B4|
(Ac)ec Acec|defa e4|d2 fa ecdB|[1c2 A2 A4:|[2c2 A2 A3 E|]
